X:1
T:Title
%%score ( 1 2 ) ( 3 4 )
L:1/8
Q:1/4=100
M:4/4
K:D
V:1 treble nm="Midi_20"
V:2 treble 
V:3 bass nm="Midi_20"
V:4 bass 
V:1
"^Saints of God (8 8. 8 8. 8 8.)""^Sir Arthur Sullivan\n(1842-1900)""^The saints of God! their conflict past" F2 | %1
 A3 A A2 A2 | d2 c2 B2 B2 | A2 G2 F2 A2 | E3 E[Q:1/4=50] D2 ||[Q:1/4=50][Q:1/4=50] F2 | %6
 A3 A A2 A2 | d2 c2 B2 B2 | c3 B A2 B2 | ^G2 G2[Q:1/4=50] F2 || A2 | A3 B A2 d2 | A3 B A2 d2 | %13
 B2 G2 F2 B2 | A2 C2[Q:1/4=50] D2 |] %15
V:2
 D2 | F3 F G2 G2 | A2 A2 G2 G2 | E2 E2 D2 D2 | D2 C2 D2 || D2 | F3 F G2 G2 | A2 ^A2 B2 F2 | %8
 ^G3 G F2 F2 | F2 ^E2 F2 || F2 | E3 E A2 A2 | G3 G F2 A2 | G2 D2 D2 D2 | C2 A,2 A,2 |] %15
V:3
 A,2 | D3 D C2 C2 | D2 D2 D2 D2 | A,2 A,2 A,2 A,2 | (G,F,) G,2 F,2 || A,2 | D3 D C2 C2 | %7
w: The|saints of God! their|con- flict past, And|life's long bat- tle|won * at last,|No|more they need the|
w: The|saints of God! their|wander- ings done, No|more their wea- ry|course * they run,|No|more they faint, no|
w: The|saints of God! Life's|jour- ney o'er, Safe|land- ed on that|bliss\- * ful shore,|No|stor- my tem- pests|
w: O|God of saints, to|Thee we cry; O|Sa- viour, plead for|us * on high;|O|Ho- ly Ghost, our|
 D2 E2 D2 D2 | C3 C C2 D2 | ^G,2 B,2 A,2 || C2 | C3 C D2 D2 | C3 C D2 D2 | D2 G,2 A,2 E,2 | %14
w: shield or sword; They|cast them down be-|fore their Lord:|O|hap- py saints, for|e- ver blest, At|Je- sus' feet how|
w: more they fall, No|foes op- press, no|fears ap- pal:|O|hap- py saints, for|e- ver blest, In|that dear home how|
w: now they dread, No|roar- ing bil- lows|lift their head:|O|hap- py saints, for|e- ver blest In|that calm ha- ven|
w: Guide and Friend, Grant|us Thy grace till|life shall end,|That|with all saints our|rest may be, In|that bright Pa- ra-|
"^William Dalrymple MacLagan\n(1826-1910)" E,2 G,2 F,2 |] %15
w: safe your rest!|
w: sweet your rest!|
w: of your rest!|
w: dise with Thee.|
V:4
 D,2 | D,3 D, E,2 E,2 | F,2 F,2 G,2 B,,2 | C,2 C,2 D,2 F,,2 | A,,2 A,,2 D,2 || D,2 | %6
 D,3 D, E,2 E,2 | F,2 F,2 B,2 B,2 | ^E,3 E, F,2 B,,2 | C,2 C,2 F,2 || F,2 | G,3 G, F,2 F,2 | %12
 A,3 A, D2 F,2 | G,2 B,,2 A,,2 ^G,,2 | A,,2 A,,2 D,2 |] %15

